(SPINDLE SUPPORT)
(T1  D=3.15 CR=0. - ZMIN=14.5 - FLAT END MILL)
(T4  D=7.938 CR=0. - ZMIN=0. - FLAT END MILL)
G90 G94 G91.1 G40 G49 G17
G21

(TRACE1)
M5
M9
T1 M6
S10000 M3
G54
M8
G0 X41.341 Y194.704
G43 Z44.5 H1
Z20.
G1 Z16.5 F1500.
Z14.815
G18 G2 X41.656 Z14.5 I0.315 K0.
G1 X66.656
G2 X66.971 Z14.815 I0. K0.315
G1 Z20.
G0 Z30.
X41.341 Y65.557
Z20.
G1 Z16.5 F1500.
Z14.815
G2 X41.656 Z14.5 I0.315 K0.
G1 X146.656
G2 X146.971 Z14.815 I0. K0.315
G1 Z20.
G0 Z30.
X41.341 Y43.204
Z20.
G1 Z16.5 F1500.
Z14.815
G2 X41.656 Z14.5 I0.315 K0.
G1 X66.656
G2 X66.971 Z14.815 I0. K0.315
G1 Z20.
G0 Z44.5
G17

(2D CONTOUR1)
M5
M9
M1
T4 M6
S10000 M3
G54
M8
G0 Z46.
G0 X123.235 Y139.606
G43 H4
G1 Z15.794 F762.
X123.24 Y139.61 Z15.69
X123.256 Y139.623 Z15.588
X123.282 Y139.644 Z15.49
X123.317 Y139.673 Z15.397
X123.362 Y139.709 Z15.311
X123.415 Y139.753 Z15.232
X123.476 Y139.802 Z15.164
X123.542 Y139.857 Z15.106
X123.615 Y139.916 Z15.06
X123.691 Y139.978 Z15.027
X123.77 Y140.042 Z15.007
X123.85 Y140.107 Z15.
X124.465 Y140.609 F3962.
G3 X124.579 Y141.726 I-0.502 J0.615
X68.733 Y96.182 I-27.923 J-22.772 F5962.
X95.418 Y82.944 I27.923 J22.772
G2 X96.77 Y82.657 I-0.136 J-3.966
X98.12 Y82.953 I1.512 J-3.67
G3 X124.579 Y141.726 I-1.464 J36.001
X123.462 Y141.839 I-0.615 J-0.502 F3962.
G1 X122.847 Y141.338
X122.766 Y141.272 Z15.007
X122.688 Y141.208 Z15.027
X122.611 Y141.146 Z15.06
X122.539 Y141.087 Z15.106
X122.472 Y141.032 Z15.164
X122.412 Y140.983 Z15.232
X122.359 Y140.94 Z15.311
X122.314 Y140.903 Z15.397
X122.278 Y140.874 Z15.49
X122.253 Y140.853 Z15.588
X122.237 Y140.84 Z15.69
X122.232 Y140.836 Z15.794
G0 Z35.
X123.235 Y139.606
G1 Z0.794 F762.
X123.24 Y139.61 Z0.69
X123.256 Y139.623 Z0.588
X123.282 Y139.644 Z0.49
X123.317 Y139.673 Z0.397
X123.362 Y139.709 Z0.311
X123.415 Y139.753 Z0.232
X123.476 Y139.802 Z0.164
X123.542 Y139.857 Z0.106
X123.615 Y139.916 Z0.06
X123.691 Y139.978 Z0.027
X123.77 Y140.042 Z0.007
X123.85 Y140.107 Z0.
X124.465 Y140.609 F3962.
G3 X124.579 Y141.726 I-0.502 J0.615
X68.733 Y96.182 I-27.923 J-22.772 F5962.
X95.418 Y82.944 I27.923 J22.772
G2 X96.77 Y82.657 I-0.136 J-3.966
X98.12 Y82.953 I1.512 J-3.67
G3 X124.579 Y141.726 I-1.464 J36.001
X123.462 Y141.839 I-0.615 J-0.502 F3962.
G1 X122.847 Y141.338
X122.766 Y141.272 Z0.007
X122.688 Y141.208 Z0.027
X122.611 Y141.146 Z0.06
X122.539 Y141.087 Z0.106
X122.472 Y141.032 Z0.164
X122.412 Y140.983 Z0.232
X122.359 Y140.94 Z0.311
X122.314 Y140.903 Z0.397
X122.278 Y140.874 Z0.49
X122.253 Y140.853 Z0.588
X122.237 Y140.84 Z0.69
X122.232 Y140.836 Z0.794
G0 Z46.
X63.331 Y210.208
G1 Z15.794 F762.
X63.329 Y210.201 Z15.69
X63.325 Y210.181 Z15.588
X63.318 Y210.149 Z15.49
X63.308 Y210.104 Z15.397
X63.296 Y210.048 Z15.311
X63.281 Y209.981 Z15.232
X63.264 Y209.905 Z15.164
X63.245 Y209.82 Z15.106
X63.225 Y209.729 Z15.06
X63.204 Y209.633 Z15.027
X63.182 Y209.534 Z15.007
X63.16 Y209.433 Z15.
X62.988 Y208.658 F3962.
G3 X63.592 Y207.711 I0.775 J-0.171
G2 X70.625 Y198.954 I-1.936 J-8.757 F5962.
G1 Y190.454
G3 X71.656 Y189.423 I1.031 J0.
G1 X141.656
G2 X150.625 Y180.454 I0. J-8.969
G1 Y164.248
G3 X150.86 Y163.594 I1.031 J0.001
G2 X150.861 Y74.316 I-54.204 J-44.639
G3 X150.625 Y73.66 I0.795 J-0.656
G1 Y57.454
G2 X141.656 Y48.485 I-8.969 J0.
G1 X98.281
G2 X96.781 Y48.78 I0. J3.969
X95.281 Y48.485 I-1.5 J3.674
G1 X71.656
G3 X70.625 Y47.454 I0. J-1.031
G1 Y38.954
G2 X61.656 Y29.985 I-8.969 J0.
G1 X41.656
G2 X37.688 Y33.954 I0. J3.969
G1 Y203.954
G2 X41.656 Y207.923 I3.969 J0.
G1 X61.656
G2 X63.592 Y207.711 I0. J-8.969
G3 X64.538 Y208.315 I0.171 J0.775 F3962.
G1 X64.71 Y209.09
X64.732 Y209.191 Z15.007
X64.754 Y209.291 Z15.027
X64.775 Y209.387 Z15.06
X64.795 Y209.478 Z15.106
X64.814 Y209.562 Z15.164
X64.831 Y209.638 Z15.232
X64.846 Y209.705 Z15.311
X64.858 Y209.761 Z15.397
X64.868 Y209.806 Z15.49
X64.875 Y209.839 Z15.588
X64.88 Y209.859 Z15.69
X64.881 Y209.865 Z15.794
G0 Z35.
X63.331 Y210.208
G1 Z0.794 F762.
X63.329 Y210.201 Z0.69
X63.325 Y210.181 Z0.588
X63.318 Y210.149 Z0.49
X63.308 Y210.104 Z0.397
X63.296 Y210.048 Z0.311
X63.281 Y209.981 Z0.232
X63.264 Y209.905 Z0.164
X63.245 Y209.82 Z0.106
X63.225 Y209.729 Z0.06
X63.204 Y209.633 Z0.027
X63.182 Y209.534 Z0.007
X63.16 Y209.433 Z0.
X62.988 Y208.658 F3962.
G3 X63.592 Y207.711 I0.775 J-0.171
G2 X70.625 Y198.954 I-1.936 J-8.757 F5962.
G1 Y190.454
G3 X71.656 Y189.423 I1.031 J0.
G1 X141.656
G2 X150.625 Y180.454 I0. J-8.969
G1 Y164.248
G3 X150.86 Y163.594 I1.031 J0.001
G2 X150.861 Y74.316 I-54.204 J-44.639
G3 X150.625 Y73.66 I0.795 J-0.656
G1 Y57.454
G2 X141.656 Y48.485 I-8.969 J0.
G1 X98.281
G2 X96.781 Y48.78 I0. J3.969
X95.281 Y48.485 I-1.5 J3.674
G1 X71.656
G3 X70.625 Y47.454 I0. J-1.031
G1 Y38.954
G2 X61.656 Y29.985 I-8.969 J0.
G1 X41.656
G2 X37.688 Y33.954 I0. J3.969
G1 Y203.954
G2 X41.656 Y207.923 I3.969 J0.
G1 X61.656
G2 X63.592 Y207.711 I0. J-8.969
G3 X64.538 Y208.315 I0.171 J0.775 F3962.
G1 X64.71 Y209.09
X64.732 Y209.191 Z0.007
X64.754 Y209.291 Z0.027
X64.775 Y209.387 Z0.06
X64.795 Y209.478 Z0.106
X64.814 Y209.562 Z0.164
X64.831 Y209.638 Z0.232
X64.846 Y209.705 Z0.311
X64.858 Y209.761 Z0.397
X64.868 Y209.806 Z0.49
X64.875 Y209.839 Z0.588
X64.88 Y209.859 Z0.69
X64.881 Y209.865 Z0.794
G0 Z45.

M9
M30
